app/images/dist/intro-auto/intro__auto-4.svg

<svg width="1440" height="810" fill="none" xmlns="http://www.w3.org/2000/svg"><g clip-path="url(#clip0)"><g clip-path="url(#clip1)"><path d="M442.64 614.993a.668.668 0 01-.472.817l-2.704.724 3.25 2.728a.339.339 0 01.111.327.333.333 0 01-.24.25l-7.779 2.084a.33.33 0 01-.413-.256.335.335 0 01.014-.18l1.451-3.986-2.705.724a.667.667 0 01-.817-.471l-2.415-9.015a.667.667 0 01.471-.817l9.016-2.415a.665.665 0 01.816.471l2.416 9.015zm-4.594-4.705a.268.268 0 00-.274-.197l-.052.009-3.569.956a.255.255 0 00-.111.062.265.265 0 00-.036.352l.036.04 2.536 2.326a.266.266 0 00.413-.067l.021-.049 1.034-3.283a.266.266 0 00.002-.148v-.001z" fill="#fff"/></g><path d="M436.14 631.311c-.321-1.199-.165-2.241.467-3.126.642-.887 1.756-1.543 3.343-1.968 1.586-.425 2.893-.417 3.919.023 1.035.437 1.713 1.256 2.035 2.455.212.793.21 1.504-.009 2.132-.215.638-.612 1.194-1.191 1.668l-.8-.771c.436-.32.746-.713.931-1.178.193-.467.212-.994.055-1.58a2.63 2.63 0 00-.524-1.033 2.366 2.366 0 00-.88-.634 3.145 3.145 0 00-1.148-.229 4.684 4.684 0 00-1.359.176l-1.406.377c-.974.261-1.675.69-2.105 1.288-.429.598-.533 1.308-.314 2.128.162.604.451 1.068.866 1.391.424.322.919.508 1.483.56l-.325 1.058c-.747-.119-1.389-.406-1.926-.861-.529-.457-.899-1.083-1.112-1.876zm3.141 11.073l2.532-1.693-1.021-3.813-3.04-.2-.308-1.15 10.323.771.388 1.447-8.555 5.828-.319-1.19zm7.627-5.072l-.018-.068-5.025-.364.873 3.259 4.17-2.827zm3.07 13.187l-.018-.067-1.796-.374-4.716-1.157 3.506-3.36 1.368-1.222-.018-.067-7.952 2.13-.297-1.109 9.439-2.529.406 1.515-4.36 4.067.018.067 5.813 1.356.392 1.46-9.439 2.53-.298-1.109 7.952-2.131zm-6.071 9.147l1-.268.707 2.637 7.6-2.036-.026-.095-2.855-1.786.539-.854 3.01 1.874.474 1.772-8.438 2.261.652 2.434-1 .268-1.663-6.207z" fill="#fff"/><path d="M389.08 693.995l183.075 95.085-66.1 20.909L328.83 810l60.25-116.005z" fill="url(#paint0_linear)"/></g><defs><clipPath id="clip0"><path fill="#fff" d="M0 0h1440v810H0z"/></clipPath><clipPath id="clip1"><path fill="#fff" transform="rotate(75 -172.347 590.31)" d="M0 0h16v16H0z"/></clipPath><linearGradient id="paint0_linear" x1="389.08" y1="693.995" x2="433.075" y2="833.075" gradientUnits="userSpaceOnUse"><stop stop-color="#fff" stop-opacity=".4"/><stop offset="1" stop-color="#fff" stop-opacity="0"/></linearGradient></defs></svg>

<svg width="1440" height="810" viewBox="0 0 1440 810" fill="none" xmlns="http://www.w3.org/2000/svg">
<g clip-path="url(#clip0)">
<g clip-path="url(#clip1)">
<path d="M442.64 614.993C442.685 615.164 442.662 615.346 442.573 615.499C442.485 615.652 442.339 615.764 442.168 615.81L439.464 616.534L442.714 619.262C442.76 619.301 442.795 619.352 442.815 619.41C442.835 619.468 442.838 619.53 442.825 619.589C442.812 619.649 442.782 619.704 442.74 619.748C442.698 619.792 442.644 619.823 442.585 619.839L434.806 621.923C434.748 621.939 434.685 621.939 434.627 621.922C434.568 621.905 434.515 621.872 434.474 621.827C434.433 621.782 434.405 621.726 434.393 621.667C434.381 621.607 434.386 621.545 434.407 621.487L435.858 617.501L433.153 618.225C432.982 618.271 432.8 618.247 432.647 618.159C432.494 618.07 432.382 617.925 432.336 617.754L429.921 608.739C429.875 608.568 429.899 608.386 429.987 608.233C430.076 608.08 430.221 607.968 430.392 607.922L439.408 605.507C439.578 605.461 439.76 605.485 439.913 605.573C440.067 605.662 440.178 605.807 440.224 605.978L442.64 614.993ZM438.046 610.288C438.03 610.229 437.994 610.177 437.944 610.141C437.895 610.105 437.834 610.088 437.772 610.091L437.72 610.1L434.151 611.056C434.11 611.067 434.071 611.088 434.04 611.118C434.008 611.147 433.984 611.183 433.969 611.224C433.955 611.265 433.95 611.308 433.956 611.351C433.962 611.394 433.979 611.435 434.004 611.47L434.04 611.51L436.576 613.836C436.606 613.864 436.642 613.884 436.68 613.895C436.719 613.907 436.759 613.909 436.799 613.903C436.839 613.896 436.876 613.881 436.909 613.858C436.942 613.835 436.969 613.804 436.989 613.769L437.01 613.72L438.044 610.437C438.059 610.389 438.059 610.337 438.046 610.289L438.046 610.288Z" fill="white"/>
</g>
<path d="M436.14 631.311C435.819 630.112 435.975 629.07 436.607 628.185C437.249 627.298 438.363 626.642 439.95 626.217C441.536 625.792 442.843 625.8 443.869 626.24C444.904 626.677 445.582 627.496 445.904 628.695C446.116 629.488 446.114 630.199 445.895 630.827C445.68 631.465 445.283 632.021 444.704 632.495L443.904 631.724C444.34 631.404 444.65 631.011 444.835 630.546C445.028 630.079 445.047 629.552 444.89 628.966C444.781 628.561 444.606 628.216 444.366 627.933C444.128 627.658 443.835 627.447 443.486 627.299C443.149 627.157 442.766 627.081 442.338 627.07C441.919 627.057 441.466 627.115 440.979 627.246L439.573 627.623C438.599 627.884 437.898 628.313 437.468 628.911C437.039 629.509 436.935 630.219 437.154 631.039C437.316 631.643 437.605 632.107 438.02 632.43C438.444 632.752 438.939 632.938 439.503 632.99L439.178 634.048C438.431 633.929 437.789 633.642 437.252 633.187C436.723 632.73 436.353 632.104 436.14 631.311ZM439.281 642.384L441.813 640.691L440.792 636.878L437.752 636.678L437.444 635.528L447.767 636.299L448.155 637.746L439.6 643.574L439.281 642.384ZM446.908 637.312L446.89 637.244L441.865 636.88L442.738 640.139L446.908 637.312ZM449.978 650.499L449.96 650.432L448.164 650.058L443.448 648.901L446.954 645.541L448.322 644.319L448.304 644.252L440.352 646.382L440.055 645.273L449.494 642.744L449.9 644.259L445.54 648.326L445.558 648.393L451.371 649.749L451.763 651.209L442.324 653.739L442.026 652.63L449.978 650.499ZM443.907 659.646L444.907 659.378L445.614 662.015L453.214 659.979L453.188 659.884L450.333 658.098L450.872 657.244L453.882 659.118L454.356 660.89L445.918 663.151L446.57 665.585L445.57 665.853L443.907 659.646Z" fill="white"/>
<path d="M389.08 693.995L572.155 789.08L506.055 809.989L328.83 810L389.08 693.995Z" fill="url(#paint0_linear)"/>
</g>
<defs>
<linearGradient id="paint0_linear" x1="389.08" y1="693.995" x2="433.075" y2="833.075" gradientUnits="userSpaceOnUse">
<stop stop-color="white" stop-opacity="0.4"/>
<stop offset="1" stop-color="white" stop-opacity="0"/>
</linearGradient>
<clipPath id="clip0">
<rect width="1440" height="810" fill="white"/>
</clipPath>
<clipPath id="clip1">
<rect width="16" height="16" fill="white" transform="translate(442.455 604) rotate(75)"/>
</clipPath>
</defs>
</svg>
